modules/material-icons/icons/twitter-box.svg

<svg xmlns="http://www.w3.org/2000/svg" width="24" height="24"><path d="M17.71 9.33c-.07 4.62-3.02 7.78-7.43 7.98-1.82.08-3.13-.5-4.28-1.23 1.34.21 3-.32 3.9-1.08-1.32-.14-2.09-.81-2.46-1.88.38.06.78.04 1.14-.03-1.19-.4-2.04-1.14-2.08-2.68.33.16.68.3 1.14.33-.89-.51-1.54-2.36-.79-3.58 1.32 1.45 2.91 2.63 5.52 2.79-.66-2.8 3.05-4.32 4.6-2.45.66-.12 1.19-.36 1.71-.64-.21.64-.62 1.11-1.12 1.47.54-.07 1.03-.2 1.44-.41-.25.53-.81 1.01-1.29 1.41M20 2H4c-1.1 0-2 .9-2 2v16c0 1.1.9 2 2 2h16c1.1 0 2-.9 2-2V4a2 2 0 0 0-2-2z"/></svg>

<?xml version="1.0" encoding="UTF-8"?><!DOCTYPE svg PUBLIC "-//W3C//DTD SVG 1.1//EN" "http://www.w3.org/Graphics/SVG/1.1/DTD/svg11.dtd"><svg xmlns="http://www.w3.org/2000/svg" xmlns:xlink="http://www.w3.org/1999/xlink" version="1.1" width="24" height="24" viewBox="0 0 24 24"><path d="M17.71,9.33C17.64,13.95 14.69,17.11 10.28,17.31C8.46,17.39 7.15,16.81 6,16.08C7.34,16.29 9,15.76 9.9,15C8.58,14.86 7.81,14.19 7.44,13.12C7.82,13.18 8.22,13.16 8.58,13.09C7.39,12.69 6.54,11.95 6.5,10.41C6.83,10.57 7.18,10.71 7.64,10.74C6.75,10.23 6.1,8.38 6.85,7.16C8.17,8.61 9.76,9.79 12.37,9.95C11.71,7.15 15.42,5.63 16.97,7.5C17.63,7.38 18.16,7.14 18.68,6.86C18.47,7.5 18.06,7.97 17.56,8.33C18.1,8.26 18.59,8.13 19,7.92C18.75,8.45 18.19,8.93 17.71,9.33M20,2H4C2.9,2 2,2.9 2,4V20C2,21.1 2.9,22 4,22H20C21.1,22 22,21.1 22,20V4C22,2.89 21.1,2 20,2Z" /></svg>
